report_00007_2020-12-11T15:55:29.892Z/network-server-latency/samples/pages+cached+nointeractive/raw/sorted.svg

<svg width="640" height="490" xmlns="http://www.w3.org/2000/svg" xmlns:xlink="http://www.w3.org/1999/xlink"><path fill="#fff" d="M0 0h640v490H0z"/><defs><path id="d" stroke-width=".222" stroke="currentColor" d="M-1-1h2v2h-2z"/><path id="b" stroke-width=".222" stroke="currentColor" d="M0-1.33l-1.33 2h2.66z"/><path id="f" stroke-width=".222" stroke="currentColor" d="M0 1.33L1.265.411.782-1.067l-1.564-.009-.483 1.487z"/><use xlink:href="#b" id="c" stroke="currentColor" transform="rotate(180)"/><use xlink:href="#d" id="e" stroke="currentColor" transform="rotate(45)"/><circle id="a" stroke-width=".222" stroke="currentColor" cx="0" cy="0" r="1"/></defs><g fill="none" color="#000" stroke="currentColor"><path stroke="#000" d="M45.6 405.4h9m560.4 0h-9"/><text transform="translate(37.3 409.3)" stroke="none" fill="#000" font-family="Arial" font-size="12" text-anchor="end"><tspan>5</tspan></text></g><g fill="none" color="#000" stroke="currentColor"><path stroke="#000" d="M45.6 328.2h9m560.4 0h-9"/><text transform="translate(37.3 332.1)" stroke="none" fill="#000" font-family="Arial" font-size="12" text-anchor="end"><tspan>6</tspan></text></g><g fill="none" color="#000" stroke="currentColor"><path stroke="#000" d="M45.6 251.1h9m560.4 0h-9"/><text transform="translate(37.3 255)" stroke="none" fill="#000" font-family="Arial" font-size="12" text-anchor="end"><tspan>7</tspan></text></g><g fill="none" color="#000" stroke="currentColor"><path stroke="#000" d="M45.6 174h9m560.4 0h-9"/><text transform="translate(37.3 177.9)" stroke="none" fill="#000" font-family="Arial" font-size="12" text-anchor="end"><tspan>8</tspan></text></g><g fill="none" color="#000" stroke="currentColor"><path stroke="#000" d="M45.6 96.8h9m560.4 0h-9"/><text transform="translate(37.3 100.7)" stroke="none" fill="#000" font-family="Arial" font-size="12" text-anchor="end"><tspan>9</tspan></text></g><g fill="none" color="#000" stroke="currentColor"><path stroke="#000" d="M45.6 19.7h9m560.4 0h-9"/><text transform="translate(37.3 23.6)" stroke="none" fill="#000" font-family="Arial" font-size="12" text-anchor="end"><tspan>10</tspan></text></g><g fill="none" color="#000" stroke="currentColor"><path stroke="#000" d="M45.6 436v-9m0-408.9v9"/><text transform="translate(45.6 457.9)" stroke="none" fill="#000" font-family="Arial" font-size="12" text-anchor="middle"><tspan>0</tspan></text></g><g fill="none" color="#000" stroke="currentColor"><path stroke="#000" d="M103.1 436v-9m0-408.9v9"/><text transform="translate(103.1 457.9)" stroke="none" fill="#000" font-family="Arial" font-size="12" text-anchor="middle"><tspan>10</tspan></text></g><g fill="none" color="#000" stroke="currentColor"><path stroke="#000" d="M160.6 436v-9m0-408.9v9"/><text transform="translate(160.6 457.9)" stroke="none" fill="#000" font-family="Arial" font-size="12" text-anchor="middle"><tspan>20</tspan></text></g><g fill="none" color="#000" stroke="currentColor"><path stroke="#000" d="M218.1 436v-9m0-408.9v9"/><text transform="translate(218.1 457.9)" stroke="none" fill="#000" font-family="Arial" font-size="12" text-anchor="middle"><tspan>30</tspan></text></g><g fill="none" color="#000" stroke="currentColor"><path stroke="#000" d="M275.7 436v-9m0-408.9v9"/><text transform="translate(275.7 457.9)" stroke="none" fill="#000" font-family="Arial" font-size="12" text-anchor="middle"><tspan>40</tspan></text></g><g fill="none" color="#000" stroke="currentColor"><path stroke="#000" d="M333.2 436v-9m0-408.9v9"/><text transform="translate(333.2 457.9)" stroke="none" fill="#000" font-family="Arial" font-size="12" text-anchor="middle"><tspan>50</tspan></text></g><g fill="none" color="#000" stroke="currentColor"><path stroke="#000" d="M390.7 436v-9m0-408.9v9"/><text transform="translate(390.7 457.9)" stroke="none" fill="#000" font-family="Arial" font-size="12" text-anchor="middle"><tspan>60</tspan></text></g><g fill="none" color="#000" stroke="currentColor"><path stroke="#000" d="M448.2 436v-9m0-408.9v9"/><text transform="translate(448.2 457.9)" stroke="none" fill="#000" font-family="Arial" font-size="12" text-anchor="middle"><tspan>70</tspan></text></g><g fill="none" color="#000" stroke="currentColor"><path stroke="#000" d="M505.7 436v-9m0-408.9v9"/><text transform="translate(505.7 457.9)" stroke="none" fill="#000" font-family="Arial" font-size="12" text-anchor="middle"><tspan>80</tspan></text></g><g fill="none" color="#000" stroke="currentColor"><path stroke="#000" d="M563.2 436v-9m0-408.9v9"/><text transform="translate(563.2 457.9)" stroke="none" fill="#000" font-family="Arial" font-size="12" text-anchor="middle"><tspan>90</tspan></text></g><path stroke="#000" d="M45.6 18.1V436H615V18.1H45.6z" fill="none" color="#000"/><text transform="translate(313.3 475.9)" stroke="none" fill="#000" font-family="Arial" font-size="12" text-anchor="end" color="#000"><tspan>raw</tspan></text><path stroke="#9400D3" d="M321.6 472h42.2M45.6 428l5.8-3.8 5.7-9.6 5.8-.3 5.7-6.8 5.8-3.3 5.7-5.3 5.8-2.2 5.7-1.7 5.8-2.4 5.7-4.5 5.8-1.4 5.7-1.8 5.8-1.5 5.7-.2 5.8-.3 5.7-.4 5.8-1 5.7-.7h5.8l5.7-.9 5.8-.9 5.7-2.2 5.8-1.7 5.7-.9 5.8-1.2 5.7-2 5.8-1.1 5.7-.5 5.8-.4 5.7-1.7 5.8-1.4 5.7-1 5.8-.5 5.8-1.3 5.7-.5 5.8-.9 5.7-1.5 5.8-.2 5.7-1.5 5.8-.7 5.7-.7 5.8-2.1 5.7-2.1 5.8-1 5.7-2.6 5.8-.2 5.7-1.3 5.8-3.5 5.7-1.7 5.8-2.6 5.7-4.2 5.8-1.6 5.7-.4 5.8-.9h5.7l5.8-2.6 5.7-.3 5.8-.9 5.7-1.2 5.8-2.7 5.7-1 5.8-.1 5.7-.7 5.8-1.3 5.7-2.6 5.8-1.8 5.8-1.4 5.7-1.7 5.8-1.5 5.7-1.4 5.8-1.9 5.7-1.4 5.8-.1 5.7-9.1 5.8-9.6 5.7-10.3 5.8-23.6 5.7-6.7 5.8-11.6 5.7-7.2 5.8-15.9 5.7-12.9L523 179l5.7-3.6 5.8-3 5.7-1 5.8-.3 5.7-6.5 5.8-27.7h5.7l5.8-9.6 5.7-2.9 5.8-9.8 5.7-11.7 5.8-4.8 5.7-9.9 5.8-16.1 5.7-6.6 5.8-39.4" fill="none" color="#000"/><g fill="none" color="#000" stroke="currentColor"><path stroke="#000" d="M45.6 18.1V436H615V18.1H45.6z"/></g></svg>

<?xml version="1.0" encoding="utf-8"  standalone="no"?>
<svg 
 width="640" height="490"
 viewBox="0 0 640 490"
 xmlns="http://www.w3.org/2000/svg"
 xmlns:xlink="http://www.w3.org/1999/xlink"
>

<title>Gnuplot</title>
<desc>Produced by GNUPLOT 5.4 patchlevel 0 </desc>

<g id="gnuplot_canvas">

<rect x="0" y="0" width="640" height="490" fill="#ffffff"/>
<defs>

	<circle id='gpDot' r='0.5' stroke-width='0.5' stroke='currentColor'/>
	<path id='gpPt0' stroke-width='0.222' stroke='currentColor' d='M-1,0 h2 M0,-1 v2'/>
	<path id='gpPt1' stroke-width='0.222' stroke='currentColor' d='M-1,-1 L1,1 M1,-1 L-1,1'/>
	<path id='gpPt2' stroke-width='0.222' stroke='currentColor' d='M-1,0 L1,0 M0,-1 L0,1 M-1,-1 L1,1 M-1,1 L1,-1'/>
	<rect id='gpPt3' stroke-width='0.222' stroke='currentColor' x='-1' y='-1' width='2' height='2'/>
	<rect id='gpPt4' stroke-width='0.222' stroke='currentColor' fill='currentColor' x='-1' y='-1' width='2' height='2'/>
	<circle id='gpPt5' stroke-width='0.222' stroke='currentColor' cx='0' cy='0' r='1'/>
	<use xlink:href='#gpPt5' id='gpPt6' fill='currentColor' stroke='none'/>
	<path id='gpPt7' stroke-width='0.222' stroke='currentColor' d='M0,-1.33 L-1.33,0.67 L1.33,0.67 z'/>
	<use xlink:href='#gpPt7' id='gpPt8' fill='currentColor' stroke='none'/>
	<use xlink:href='#gpPt7' id='gpPt9' stroke='currentColor' transform='rotate(180)'/>
	<use xlink:href='#gpPt9' id='gpPt10' fill='currentColor' stroke='none'/>
	<use xlink:href='#gpPt3' id='gpPt11' stroke='currentColor' transform='rotate(45)'/>
	<use xlink:href='#gpPt11' id='gpPt12' fill='currentColor' stroke='none'/>
	<path id='gpPt13' stroke-width='0.222' stroke='currentColor' d='M0,1.330 L1.265,0.411 L0.782,-1.067 L-0.782,-1.076 L-1.265,0.411 z'/>
	<use xlink:href='#gpPt13' id='gpPt14' fill='currentColor' stroke='none'/>
	<filter id='textbox' filterUnits='objectBoundingBox' x='0' y='0' height='1' width='1'>
	  <feFlood flood-color='#FFFFFF' flood-opacity='1' result='bgnd'/>
	  <feComposite in='SourceGraphic' in2='bgnd' operator='atop'/>
	</filter>
	<filter id='greybox' filterUnits='objectBoundingBox' x='0' y='0' height='1' width='1'>
	  <feFlood flood-color='lightgrey' flood-opacity='1' result='grey'/>
	  <feComposite in='SourceGraphic' in2='grey' operator='atop'/>
	</filter>
</defs>
<g fill="none" color="#FFFFFF" stroke="currentColor" stroke-width="1.00" stroke-linecap="butt" stroke-linejoin="miter">
</g>
<g fill="none" color="black" stroke="currentColor" stroke-width="1.00" stroke-linecap="butt" stroke-linejoin="miter">
	<path stroke='black'  d='M45.6,405.4 L54.6,405.4 M615.0,405.4 L606.0,405.4  '/>	<g transform="translate(37.3,409.3)" stroke="none" fill="black" font-family="Arial" font-size="12.00"  text-anchor="end">
		<text><tspan font-family="Arial" > 5</tspan></text>
	</g>
</g>
<g fill="none" color="black" stroke="currentColor" stroke-width="1.00" stroke-linecap="butt" stroke-linejoin="miter">
	<path stroke='black'  d='M45.6,328.2 L54.6,328.2 M615.0,328.2 L606.0,328.2  '/>	<g transform="translate(37.3,332.1)" stroke="none" fill="black" font-family="Arial" font-size="12.00"  text-anchor="end">
		<text><tspan font-family="Arial" > 6</tspan></text>
	</g>
</g>
<g fill="none" color="black" stroke="currentColor" stroke-width="1.00" stroke-linecap="butt" stroke-linejoin="miter">
	<path stroke='black'  d='M45.6,251.1 L54.6,251.1 M615.0,251.1 L606.0,251.1  '/>	<g transform="translate(37.3,255.0)" stroke="none" fill="black" font-family="Arial" font-size="12.00"  text-anchor="end">
		<text><tspan font-family="Arial" > 7</tspan></text>
	</g>
</g>
<g fill="none" color="black" stroke="currentColor" stroke-width="1.00" stroke-linecap="butt" stroke-linejoin="miter">
	<path stroke='black'  d='M45.6,174.0 L54.6,174.0 M615.0,174.0 L606.0,174.0  '/>	<g transform="translate(37.3,177.9)" stroke="none" fill="black" font-family="Arial" font-size="12.00"  text-anchor="end">
		<text><tspan font-family="Arial" > 8</tspan></text>
	</g>
</g>
<g fill="none" color="black" stroke="currentColor" stroke-width="1.00" stroke-linecap="butt" stroke-linejoin="miter">
	<path stroke='black'  d='M45.6,96.8 L54.6,96.8 M615.0,96.8 L606.0,96.8  '/>	<g transform="translate(37.3,100.7)" stroke="none" fill="black" font-family="Arial" font-size="12.00"  text-anchor="end">
		<text><tspan font-family="Arial" > 9</tspan></text>
	</g>
</g>
<g fill="none" color="black" stroke="currentColor" stroke-width="1.00" stroke-linecap="butt" stroke-linejoin="miter">
	<path stroke='black'  d='M45.6,19.7 L54.6,19.7 M615.0,19.7 L606.0,19.7  '/>	<g transform="translate(37.3,23.6)" stroke="none" fill="black" font-family="Arial" font-size="12.00"  text-anchor="end">
		<text><tspan font-family="Arial" > 10</tspan></text>
	</g>
</g>
<g fill="none" color="black" stroke="currentColor" stroke-width="1.00" stroke-linecap="butt" stroke-linejoin="miter">
	<path stroke='black'  d='M45.6,436.0 L45.6,427.0 M45.6,18.1 L45.6,27.1  '/>	<g transform="translate(45.6,457.9)" stroke="none" fill="black" font-family="Arial" font-size="12.00"  text-anchor="middle">
		<text><tspan font-family="Arial" > 0</tspan></text>
	</g>
</g>
<g fill="none" color="black" stroke="currentColor" stroke-width="1.00" stroke-linecap="butt" stroke-linejoin="miter">
	<path stroke='black'  d='M103.1,436.0 L103.1,427.0 M103.1,18.1 L103.1,27.1  '/>	<g transform="translate(103.1,457.9)" stroke="none" fill="black" font-family="Arial" font-size="12.00"  text-anchor="middle">
		<text><tspan font-family="Arial" > 10</tspan></text>
	</g>
</g>
<g fill="none" color="black" stroke="currentColor" stroke-width="1.00" stroke-linecap="butt" stroke-linejoin="miter">
	<path stroke='black'  d='M160.6,436.0 L160.6,427.0 M160.6,18.1 L160.6,27.1  '/>	<g transform="translate(160.6,457.9)" stroke="none" fill="black" font-family="Arial" font-size="12.00"  text-anchor="middle">
		<text><tspan font-family="Arial" > 20</tspan></text>
	</g>
</g>
<g fill="none" color="black" stroke="currentColor" stroke-width="1.00" stroke-linecap="butt" stroke-linejoin="miter">
	<path stroke='black'  d='M218.1,436.0 L218.1,427.0 M218.1,18.1 L218.1,27.1  '/>	<g transform="translate(218.1,457.9)" stroke="none" fill="black" font-family="Arial" font-size="12.00"  text-anchor="middle">
		<text><tspan font-family="Arial" > 30</tspan></text>
	</g>
</g>
<g fill="none" color="black" stroke="currentColor" stroke-width="1.00" stroke-linecap="butt" stroke-linejoin="miter">
	<path stroke='black'  d='M275.7,436.0 L275.7,427.0 M275.7,18.1 L275.7,27.1  '/>	<g transform="translate(275.7,457.9)" stroke="none" fill="black" font-family="Arial" font-size="12.00"  text-anchor="middle">
		<text><tspan font-family="Arial" > 40</tspan></text>
	</g>
</g>
<g fill="none" color="black" stroke="currentColor" stroke-width="1.00" stroke-linecap="butt" stroke-linejoin="miter">
	<path stroke='black'  d='M333.2,436.0 L333.2,427.0 M333.2,18.1 L333.2,27.1  '/>	<g transform="translate(333.2,457.9)" stroke="none" fill="black" font-family="Arial" font-size="12.00"  text-anchor="middle">
		<text><tspan font-family="Arial" > 50</tspan></text>
	</g>
</g>
<g fill="none" color="black" stroke="currentColor" stroke-width="1.00" stroke-linecap="butt" stroke-linejoin="miter">
	<path stroke='black'  d='M390.7,436.0 L390.7,427.0 M390.7,18.1 L390.7,27.1  '/>	<g transform="translate(390.7,457.9)" stroke="none" fill="black" font-family="Arial" font-size="12.00"  text-anchor="middle">
		<text><tspan font-family="Arial" > 60</tspan></text>
	</g>
</g>
<g fill="none" color="black" stroke="currentColor" stroke-width="1.00" stroke-linecap="butt" stroke-linejoin="miter">
	<path stroke='black'  d='M448.2,436.0 L448.2,427.0 M448.2,18.1 L448.2,27.1  '/>	<g transform="translate(448.2,457.9)" stroke="none" fill="black" font-family="Arial" font-size="12.00"  text-anchor="middle">
		<text><tspan font-family="Arial" > 70</tspan></text>
	</g>
</g>
<g fill="none" color="black" stroke="currentColor" stroke-width="1.00" stroke-linecap="butt" stroke-linejoin="miter">
	<path stroke='black'  d='M505.7,436.0 L505.7,427.0 M505.7,18.1 L505.7,27.1  '/>	<g transform="translate(505.7,457.9)" stroke="none" fill="black" font-family="Arial" font-size="12.00"  text-anchor="middle">
		<text><tspan font-family="Arial" > 80</tspan></text>
	</g>
</g>
<g fill="none" color="black" stroke="currentColor" stroke-width="1.00" stroke-linecap="butt" stroke-linejoin="miter">
	<path stroke='black'  d='M563.2,436.0 L563.2,427.0 M563.2,18.1 L563.2,27.1  '/>	<g transform="translate(563.2,457.9)" stroke="none" fill="black" font-family="Arial" font-size="12.00"  text-anchor="middle">
		<text><tspan font-family="Arial" > 90</tspan></text>
	</g>
</g>
<g fill="none" color="black" stroke="currentColor" stroke-width="1.00" stroke-linecap="butt" stroke-linejoin="miter">
</g>
<g fill="none" color="black" stroke="currentColor" stroke-width="1.00" stroke-linecap="butt" stroke-linejoin="miter">
	<path stroke='black'  d='M45.6,18.1 L45.6,436.0 L615.0,436.0 L615.0,18.1 L45.6,18.1 Z  '/></g>
<g fill="none" color="black" stroke="currentColor" stroke-width="1.00" stroke-linecap="butt" stroke-linejoin="miter">
</g>
	<g id="gnuplot_plot_1" ><title>raw</title>
<g fill="none" color="black" stroke="currentColor" stroke-width="1.00" stroke-linecap="butt" stroke-linejoin="miter">
	<g transform="translate(313.3,475.9)" stroke="none" fill="black" font-family="Arial" font-size="12.00"  text-anchor="end">
		<text><tspan font-family="Arial" >raw</tspan></text>
	</g>
</g>
<g fill="none" color="black" stroke="currentColor" stroke-width="1.00" stroke-linecap="butt" stroke-linejoin="miter">
	<path stroke='rgb(148,   0, 211)'  d='M321.6,472.0 L363.8,472.0 M45.6,428.0 L51.4,424.2 L57.1,414.6 L62.9,414.3 L68.6,407.5 L74.4,404.2
		L80.1,398.9 L85.9,396.7 L91.6,395.0 L97.4,392.6 L103.1,388.1 L108.9,386.7 L114.6,384.9 L120.4,383.4
		L126.1,383.2 L131.9,382.9 L137.6,382.5 L143.4,381.5 L149.1,380.8 L154.9,380.8 L160.6,379.9 L166.4,379.0
		L172.1,376.8 L177.9,375.1 L183.6,374.2 L189.4,373.0 L195.1,371.0 L200.9,369.9 L206.6,369.4 L212.4,369.0
		L218.1,367.3 L223.9,365.9 L229.6,364.9 L235.4,364.4 L241.2,363.1 L246.9,362.6 L252.7,361.7 L258.4,360.2
		L264.2,360.0 L269.9,358.5 L275.7,357.8 L281.4,357.1 L287.2,355.0 L292.9,352.9 L298.7,351.9 L304.4,349.3
		L310.2,349.1 L315.9,347.8 L321.7,344.3 L327.4,342.6 L333.2,340.0 L338.9,335.8 L344.7,334.2 L350.4,333.8
		L356.2,332.9 L361.9,332.9 L367.7,330.3 L373.4,330.0 L379.2,329.1 L384.9,327.9 L390.7,325.2 L396.4,324.2
		L402.2,324.1 L407.9,323.4 L413.7,322.1 L419.4,319.5 L425.2,317.7 L431.0,316.3 L436.7,314.6 L442.5,313.1
		L448.2,311.7 L454.0,309.8 L459.7,308.4 L465.5,308.3 L471.2,299.2 L477.0,289.6 L482.7,279.3 L488.5,255.7
		L494.2,249.0 L500.0,237.4 L505.7,230.2 L511.5,214.3 L517.2,201.4 L523.0,179.0 L528.7,175.4 L534.5,172.4
		L540.2,171.4 L546.0,171.1 L551.7,164.6 L557.5,136.9 L563.2,136.9 L569.0,127.3 L574.7,124.4 L580.5,114.6
		L586.2,102.9 L592.0,98.1 L597.7,88.2 L603.5,72.1 L609.2,65.5 L615.0,26.1  '/></g>
	</g>
<g fill="none" color="#FFFFFF" stroke="rgb(148,   0, 211)" stroke-width="2.00" stroke-linecap="butt" stroke-linejoin="miter">
</g>
<g fill="none" color="black" stroke="currentColor" stroke-width="2.00" stroke-linecap="butt" stroke-linejoin="miter">
</g>
<g fill="none" color="black" stroke="black" stroke-width="1.00" stroke-linecap="butt" stroke-linejoin="miter">
</g>
<g fill="none" color="black" stroke="currentColor" stroke-width="1.00" stroke-linecap="butt" stroke-linejoin="miter">
	<path stroke='black'  d='M45.6,18.1 L45.6,436.0 L615.0,436.0 L615.0,18.1 L45.6,18.1 Z  '/></g>
<g fill="none" color="black" stroke="currentColor" stroke-width="1.00" stroke-linecap="butt" stroke-linejoin="miter">
</g>
</g>
</svg>
